assets/illustrations/multisize/32/html.svg

<svg id="b53a2cc1-c2df-487f-875b-2e879ea41a71" data-name="ICONS" xmlns="http://www.w3.org/2000/svg" xmlns:xlink="http://www.w3.org/1999/xlink" viewBox="0 0 32 32"><defs><linearGradient id="a4668335-ec9d-4974-a1dc-f6a0d192c3a7" x1="3.0842" y1="3.60755" x2="25.96138" y2="30.87151" gradientUnits="userSpaceOnUse"><stop offset="0" stop-color="#fff" stop-opacity="0"/><stop offset="0.86247" stop-color="#5e5e5e" stop-opacity="0.06315"/><stop offset="1" stop-opacity="0.1"/></linearGradient><linearGradient id="0e5e436c-2216-42bd-80ce-1f3bf90132d6" x1="20.14788" y1="9.10212" x2="24.11437" y2="5.13563" gradientUnits="userSpaceOnUse"><stop offset="0" stop-color="#fff" stop-opacity="0"/><stop offset="0.44604" stop-color="#fff" stop-opacity="0.00799"/><stop offset="0.63551" stop-color="#fff" stop-opacity="0.03616"/><stop offset="0.77636" stop-color="#fff" stop-opacity="0.08493"/><stop offset="0.8924" stop-color="#fff" stop-opacity="0.15385"/><stop offset="0.99328" stop-color="#fff" stop-opacity="0.24291"/><stop offset="1" stop-color="#fff" stop-opacity="0.25"/></linearGradient><linearGradient id="d444ff8b-1e4e-471f-908a-f14ef774c87f" x1="23" y1="10.9375" x2="23" y2="9.05834" gradientUnits="userSpaceOnUse"><stop offset="0" stop-color="#828282" stop-opacity="0"/><stop offset="0.86247" stop-color="#303030" stop-opacity="0.06315"/><stop offset="1" stop-opacity="0.1"/></linearGradient></defs><title>FileTypeIcons_Master_All_NEW</title><polygon points="26 29 6 29 6 3 21 3 26 8 26 29" fill="#fff"/><path d="M21,2H5V30H27V8Zm0,1.5L25.5,8H21ZM26,29H6V3H20V9h6Z" fill="#949494"/><rect x="8" y="23" width="16" height="1" fill="#c8c8c8"/><rect x="8" y="25" width="16" height="1" fill="#c8c8c8"/><path d="M16,9a6,6,0,1,0,6,6A6.00014,6.00014,0,0,0,16,9Zm3.97461,3h-1.3794a6.87121,6.87121,0,0,0-.67871-1.61523A5.01386,5.01386,0,0,1,19.97461,12ZM18,15a10.44273,10.44273,0,0,1-.18751,2h-3.625a10.761,10.761,0,0,1,0-4h3.625A10.44273,10.44273,0,0,1,18,15Zm-2,5c-.499,0-1.1333-.73535-1.55273-2h3.10546C17.1333,19.26465,16.499,20,16,20Zm-1.55273-8C14.8667,10.73535,15.501,10,16,10s1.1333.73535,1.55273,2Zm-.36377-1.61523A6.87121,6.87121,0,0,0,13.40479,12h-1.3794A5.01386,5.01386,0,0,1,14.0835,10.38477ZM11.42383,13h1.75049a11.56031,11.56031,0,0,0,0,4H11.42383a4.93079,4.93079,0,0,1,0-4Zm.60156,5h1.3794a6.87121,6.87121,0,0,0,.67871,1.61523A5.01386,5.01386,0,0,1,12.02539,18Zm5.89111,1.61523A6.87121,6.87121,0,0,0,18.59521,18h1.3794A5.01386,5.01386,0,0,1,17.9165,19.61523ZM20.57617,17H18.82568a11.56031,11.56031,0,0,0,0-4h1.75049a4.93079,4.93079,0,0,1,0,4Z" fill="#69afe5"/><path d="M27,8,21,2H5V30H27Z" fill="url(#a4668335-ec9d-4974-a1dc-f6a0d192c3a7)"/><polygon points="5 2 5 3 20 3 20 9 26 9 26 24.5 27 24.5 27 8 21 2 5 2" fill="url(#0e5e436c-2216-42bd-80ce-1f3bf90132d6)"/><rect x="20" y="9" width="6" height="2" fill="url(#d444ff8b-1e4e-471f-908a-f14ef774c87f)"/></svg>

<?xml version="1.0" encoding="utf-8"?>
<!-- Generator: Adobe Illustrator 21.1.0, SVG Export Plug-In . SVG Version: 6.00 Build 0)  -->
<svg version="1.1" xmlns="http://www.w3.org/2000/svg" xmlns:xlink="http://www.w3.org/1999/xlink" x="0px" y="0px"
	 viewBox="0 0 32 32" enable-background="new 0 0 32 32" xml:space="preserve">
<g id="TEMPLATE" display="none">
	<g display="inline">
		<path fill="#D0D0D0" d="M32,0v32H0V0H32 M33-1h-1H0h-1v1v32v1h1h32h1v-1V0V-1L33-1z"/>
	</g>
	<g display="inline" opacity="0.1">
		<path fill="#FF3A6D" d="M30,2v28H2V2H30 M32,0H0v32h32V0L32,0z"/>
	</g>
</g>
<g id="ICONS">
	<g>
		<polygon fill="#FFFFFF" points="26,29 6,29 6,3 21,3 26,8 		"/>
		<path fill="#949494" d="M21,2H5v28h22V8L21,2z M21,3.5L25.5,8H21V3.5z M26,29H6V3h14v6h6V29z"/>
	</g>
	<rect x="8" y="23" fill="#C8C8C8" width="16" height="1"/>
	<rect x="8" y="25" fill="#C8C8C8" width="16" height="1"/>
	<g>
		<path fill="#69AFE5" d="M16,9c-3.3135,0-6,2.6863-6,6s2.6865,6,6,6s6-2.6863,6-6S19.3135,9,16,9z M19.9746,12h-1.3794
			c-0.1782-0.615-0.4072-1.1633-0.6787-1.6152C18.7412,10.7286,19.4419,11.2966,19.9746,12z M18,15c0,0.7361-0.0713,1.4042-0.1875,2
			h-3.625C14.0713,16.4042,14,15.7361,14,15s0.0713-1.4042,0.1875-2h3.625C17.9287,13.5958,18,14.2639,18,15z M16,20
			c-0.499,0-1.1333-0.7354-1.5527-2h3.1055C17.1333,19.2646,16.499,20,16,20z M14.4473,12c0.4194-1.2646,1.0537-2,1.5527-2
			s1.1333,0.7354,1.5527,2H14.4473z M14.0835,10.3848C13.812,10.8367,13.583,11.385,13.4048,12h-1.3794
			C12.5581,11.2966,13.2588,10.7286,14.0835,10.3848z M11.4238,13h1.7505C13.0635,13.6265,13,14.2976,13,15s0.0635,1.3735,0.1743,2
			h-1.7505C11.1543,16.3865,11,15.7119,11,15S11.1543,13.6135,11.4238,13z M12.0254,18h1.3794
			c0.1782,0.615,0.4072,1.1633,0.6787,1.6152C13.2588,19.2714,12.5581,18.7034,12.0254,18z M17.9165,19.6152
			C18.188,19.1633,18.417,18.615,18.5952,18h1.3794C19.4419,18.7034,18.7412,19.2714,17.9165,19.6152z M20.5762,17h-1.7505
			C18.9365,16.3735,19,15.7024,19,15s-0.0635-1.3735-0.1743-2h1.7505C20.8457,13.6135,21,14.2881,21,15S20.8457,16.3865,20.5762,17z
			"/>
	</g>
	<linearGradient id="SVGID_1_" gradientUnits="userSpaceOnUse" x1="3.0842" y1="3.6075" x2="25.9614" y2="30.8715">
		<stop  offset="0" style="stop-color:#FFFFFF;stop-opacity:0"/>
		<stop  offset="0.2264" style="stop-color:#FCFCFC;stop-opacity:0.0226"/>
		<stop  offset="0.3626" style="stop-color:#F4F4F4;stop-opacity:0.0363"/>
		<stop  offset="0.475" style="stop-color:#E6E6E6;stop-opacity:0.0475"/>
		<stop  offset="0.5744" style="stop-color:#D1D1D1;stop-opacity:0.0574"/>
		<stop  offset="0.6652" style="stop-color:#B7B7B7;stop-opacity:0.0665"/>
		<stop  offset="0.7498" style="stop-color:#979797;stop-opacity:0.075"/>
		<stop  offset="0.8297" style="stop-color:#707070;stop-opacity:0.083"/>
		<stop  offset="0.9057" style="stop-color:#444444;stop-opacity:0.0906"/>
		<stop  offset="0.9761" style="stop-color:#121212;stop-opacity:0.0976"/>
		<stop  offset="1" style="stop-color:#000000;stop-opacity:0.1"/>
	</linearGradient>
	<path fill="url(#SVGID_1_)" d="M27,8l-6-6H5v28h22V8z"/>
	<linearGradient id="SVGID_2_" gradientUnits="userSpaceOnUse" x1="20.1479" y1="9.1021" x2="24.1144" y2="5.1356">
		<stop  offset="0" style="stop-color:#FFFFFF;stop-opacity:0"/>
		<stop  offset="0.8537" style="stop-color:#FFFFFF;stop-opacity:0.2134"/>
		<stop  offset="1" style="stop-color:#FFFFFF;stop-opacity:0.25"/>
	</linearGradient>
	<polygon fill="url(#SVGID_2_)" points="5,2 5,3 20,3 20,9 26,9 26,24.5 27,24.5 27,8 21,2 	"/>
	<linearGradient id="SVGID_3_" gradientUnits="userSpaceOnUse" x1="23" y1="10.9375" x2="23" y2="9.0583">
		<stop  offset="0" style="stop-color:#828282;stop-opacity:0"/>
		<stop  offset="0.2812" style="stop-color:#7F7F7F;stop-opacity:0.0281"/>
		<stop  offset="0.4503" style="stop-color:#777777;stop-opacity:0.045"/>
		<stop  offset="0.5899" style="stop-color:#696969;stop-opacity:0.059"/>
		<stop  offset="0.7133" style="stop-color:#545454;stop-opacity:0.0713"/>
		<stop  offset="0.8259" style="stop-color:#3A3A3A;stop-opacity:0.0826"/>
		<stop  offset="0.9294" style="stop-color:#1A1A1A;stop-opacity:0.0929"/>
		<stop  offset="1" style="stop-color:#000000;stop-opacity:0.1"/>
	</linearGradient>
	<rect x="20" y="9" fill="url(#SVGID_3_)" width="6" height="2"/>
</g>
</svg>
